creal.svg

<svg width="600" height="600" xmlns="http://www.w3.org/2000/svg" xmlns:xlink="http://www.w3.org/1999/xlink" preserveAspectRatio="xMidYMid meet">
 <defs>
  <path id="aByZANxBw" d="m258.97,25.5l5.26,1.64l5.17,1.84l5.08,2.03l4.97,2.22l4.87,2.41l4.76,2.58l4.65,2.77l4.53,2.93l4.4,3.11l4.28,3.26l4.15,3.43l4.02,3.58l3.87,3.72l3.73,3.88l3.57,4.01l3.43,4.15l3.27,4.28l3.1,4.41l2.93,4.53l2.77,4.64l2.59,4.76l2.4,4.87l2.22,4.98l2.03,5.07l1.84,5.17l1.64,5.26l1.43,5.34l1.23,5.43l1.01,5.5l0.79,5.58l0.58,5.64l0.35,5.71l0.11,5.77l-0.11,5.77l-0.35,5.7l-0.58,5.65l-0.79,5.58l-1.01,5.5l-1.23,5.43l-1.43,5.34l-1.64,5.26l-1.84,5.17l-2.03,5.07l-2.22,4.98l-2.4,4.86l-2.59,4.77l-2.77,4.64l-2.93,4.53l-3.1,4.41l-3.27,4.28l-3.43,4.15l-3.57,4.01l-3.73,3.87l-3.87,3.73l-4.02,3.58l-4.15,3.43l-4.28,3.26l-2.59,1.83l119.93,275.18l-0.03,0.02l-65.41,0l-102.87,-236.02l0,0l-7.05,-16.17l-1.94,0.36l-5.58,0.79l-5.64,0.57l-5.71,0.35l-5.77,0.12l-5.76,-0.12l-5.71,-0.35l-5.65,-0.57l-5.57,-0.79l-1.93,-0.36l-31.47,72.19l90.38,0l27.38,62.81l-145.14,0l-24.93,57.18l194.99,0l26.16,60l-247.3,0l0,0.01l-65.4,0l-0.05,-0.02l112.48,-258.04l0.06,0.03l117.15,-268.79l3.94,0.89l5.34,1.43zm-29.85,-5.18l-26.88,61.67l-1.46,0.33l-3.05,0.82l-3.01,0.94l-2.95,1.05l-2.9,1.16l-2.84,1.27l-2.78,1.37l-2.72,1.48l-2.66,1.58l-2.59,1.68l-2.52,1.77l-2.44,1.87l-2.37,1.95l-2.3,2.05l-2.21,2.13l-2.13,2.21l-2.04,2.29l-1.96,2.38l-1.87,2.44l-1.77,2.52l-1.68,2.59l-1.58,2.65l-1.48,2.72l-1.37,2.79l-1.27,2.84l-1.16,2.9l-1.05,2.95l-0.94,3.01l-0.81,3.05l-0.7,3.1l-0.58,3.15l-0.46,3.18l-0.33,3.23l-0.19,3.26l-0.07,3.3l0.07,3.29l0.19,3.26l0.33,3.23l0.46,3.18l0.58,3.15l0.7,3.1l0.81,3.05l0.94,3.01l1.05,2.95l1.16,2.9l1.27,2.84l1.37,2.79l1.48,2.72l0.36,0.61l-26.87,61.66l-2.87,-2.77l-3.73,-3.87l-3.58,-4.01l-3.42,-4.15l-3.27,-4.28l-3.1,-4.41l-2.94,-4.53l-2.76,-4.64l-2.59,-4.77l-2.41,-4.86l-2.22,-4.98l-2.03,-5.07l-1.84,-5.17l-1.63,-5.26l-1.44,-5.34l-1.22,-5.43l-1.01,-5.5l-0.8,-5.58l-0.57,-5.65l-0.35,-5.7l-0.12,-5.77l0.12,-5.77l0.35,-5.71l0.57,-5.64l0.8,-5.58l1.01,-5.5l1.22,-5.43l1.44,-5.34l1.63,-5.26l1.84,-5.17l2.03,-5.07l2.22,-4.98l2.41,-4.87l2.59,-4.76l2.76,-4.64l2.94,-4.53l3.1,-4.41l3.27,-4.28l3.42,-4.15l3.58,-4.01l3.73,-3.88l3.87,-3.72l4.01,-3.58l4.15,-3.43l4.28,-3.26l4.41,-3.11l4.53,-2.93l4.65,-2.77l4.76,-2.58l4.87,-2.41l4.97,-2.22l5.07,-2.03l5.17,-1.84l5.26,-1.64l5.35,-1.43l5.42,-1.22l5.51,-1.02l5.57,-0.79l5.65,-0.58l5.71,-0.34l5.76,-0.12l5.77,0.12l3.35,0.2zm-5.83,219.61l3.27,-0.2l3.22,-0.33l3.19,-0.45l3.14,-0.58l3.1,-0.7l3.06,-0.82l3,-0.94l2.96,-1.05l2.9,-1.16l2.84,-1.26l2.78,-1.38l2.72,-1.48l2.66,-1.58l2.58,-1.68l2.52,-1.77l2.45,-1.87l2.37,-1.95l2.29,-2.05l2.22,-2.13l2.13,-2.21l2.04,-2.29l1.96,-2.37l1.86,-2.45l1.78,-2.52l1.68,-2.59l1.58,-2.65l1.47,-2.72l1.38,-2.79l1.27,-2.84l1.16,-2.9l1.05,-2.95l0.93,-3.01l0.82,-3.05l0.7,-3.1l0.58,-3.15l0.46,-3.18l0.32,-3.23l0.2,-3.26l0.07,-3.29l-0.07,-3.3l-0.2,-3.26l-0.32,-3.23l-0.46,-3.18l-0.58,-3.15l-0.7,-3.1l-0.82,-3.05l-0.93,-3.01l-1.05,-2.95l-1.16,-2.9l-1.27,-2.84l-1.38,-2.79l-1.47,-2.72l-1.58,-2.65l-1.68,-2.59l-1.78,-2.52l-1.86,-2.44l-1.96,-2.38l-1.74,-1.95l-58.41,133.99l2.71,-0.05z"/>
 </defs>
 <g>
  <title>background</title>
  <rect fill="none" id="canvas_background" height="602" width="602" y="-1" x="-1"/>
 </g>
 <g>
  <title>Layer 1</title>
  <g transform="rotate(-40 254.00003051757827,258.9999694824219) " id="svg_1">
   <g id="svg_2">
    <g id="svg_3">
     <use x="34.000033" y="-26.000026" id="svg_4" fill="#ffffff" xlink:href="#aByZANxBw"/>
    </g>
   </g>
  </g>
 </g>
</svg>

<?xml version="1.0" encoding="UTF-8" standalone="no"?>
<!DOCTYPE svg PUBLIC "-//W3C//DTD SVG 1.1//EN" "http://www.w3.org/Graphics/SVG/1.1/DTD/svg11.dtd">
<svg version="1.1" xmlns="http://www.w3.org/2000/svg" xmlns:xlink="http://www.w3.org/1999/xlink" preserveAspectRatio="xMidYMid meet" viewBox="0 0 440 570" width="440" height="570"><defs><path d="M258.97 25.5L264.23 27.14L269.4 28.98L274.48 31.01L279.45 33.23L284.32 35.64L289.08 38.22L293.73 40.99L298.26 43.92L302.66 47.03L306.94 50.29L311.09 53.72L315.11 57.3L318.98 61.02L322.71 64.9L326.28 68.91L329.71 73.06L332.98 77.34L336.08 81.75L339.01 86.28L341.78 90.92L344.37 95.68L346.77 100.55L348.99 105.53L351.02 110.6L352.86 115.77L354.5 121.03L355.93 126.37L357.16 131.8L358.17 137.3L358.96 142.88L359.54 148.52L359.89 154.23L360 160L359.89 165.77L359.54 171.47L358.96 177.12L358.17 182.7L357.16 188.2L355.93 193.63L354.5 198.97L352.86 204.23L351.02 209.4L348.99 214.47L346.77 219.45L344.37 224.31L341.78 229.08L339.01 233.72L336.08 238.25L332.98 242.66L329.71 246.94L326.28 251.09L322.71 255.1L318.98 258.97L315.11 262.7L311.09 266.28L306.94 269.71L302.66 272.97L300.07 274.8L420 549.98L419.97 550L354.56 550L251.69 313.98L251.69 313.98L244.64 297.81L242.7 298.17L237.12 298.96L231.48 299.53L225.77 299.88L220 300L214.24 299.88L208.53 299.53L202.88 298.96L197.31 298.17L195.38 297.81L163.91 370L254.29 370L281.67 432.81L136.53 432.81L111.6 489.99L306.59 489.99L332.75 549.99L85.45 549.99L85.45 550L20.05 550L20 549.98L132.48 291.94L132.54 291.97L249.69 23.18L253.63 24.07L258.97 25.5ZM229.12 20.32L202.24 81.99L200.78 82.32L197.73 83.14L194.72 84.08L191.77 85.13L188.87 86.29L186.03 87.56L183.25 88.93L180.53 90.41L177.87 91.99L175.28 93.67L172.76 95.44L170.32 97.31L167.95 99.26L165.65 101.31L163.44 103.44L161.31 105.65L159.27 107.94L157.31 110.32L155.44 112.76L153.67 115.28L151.99 117.87L150.41 120.52L148.93 123.24L147.56 126.03L146.29 128.87L145.13 131.77L144.08 134.72L143.14 137.73L142.33 140.78L141.63 143.88L141.05 147.03L140.59 150.21L140.26 153.44L140.07 156.7L140 160L140.07 163.29L140.26 166.55L140.59 169.78L141.05 172.96L141.63 176.11L142.33 179.21L143.14 182.26L144.08 185.27L145.13 188.22L146.29 191.12L147.56 193.96L148.93 196.75L150.41 199.47L150.77 200.08L123.9 261.74L121.03 258.97L117.3 255.1L113.72 251.09L110.3 246.94L107.03 242.66L103.93 238.25L100.99 233.72L98.23 229.08L95.64 224.31L93.23 219.45L91.01 214.47L88.98 209.4L87.14 204.23L85.51 198.97L84.07 193.63L82.85 188.2L81.84 182.7L81.04 177.12L80.47 171.47L80.12 165.77L80 160L80.12 154.23L80.47 148.52L81.04 142.88L81.84 137.3L82.85 131.8L84.07 126.37L85.51 121.03L87.14 115.77L88.98 110.6L91.01 105.53L93.23 100.55L95.64 95.68L98.23 90.92L100.99 86.28L103.93 81.75L107.03 77.34L110.3 73.06L113.72 68.91L117.3 64.9L121.03 61.02L124.9 57.3L128.91 53.72L133.06 50.29L137.34 47.03L141.75 43.92L146.28 40.99L150.93 38.22L155.69 35.64L160.56 33.23L165.53 31.01L170.6 28.98L175.77 27.14L181.03 25.5L186.38 24.07L191.8 22.85L197.31 21.83L202.88 21.04L208.53 20.46L214.24 20.12L220 20L225.77 20.12L229.12 20.32ZM223.29 239.93L226.56 239.73L229.78 239.4L232.97 238.95L236.11 238.37L239.21 237.67L242.27 236.85L245.27 235.91L248.23 234.86L251.13 233.7L253.97 232.44L256.75 231.06L259.47 229.58L262.13 228L264.71 226.32L267.23 224.55L269.68 222.68L272.05 220.73L274.34 218.68L276.56 216.55L278.69 214.34L280.73 212.05L282.69 209.68L284.55 207.23L286.33 204.71L288.01 202.12L289.59 199.47L291.06 196.75L292.44 193.96L293.71 191.12L294.87 188.22L295.92 185.27L296.85 182.26L297.67 179.21L298.37 176.11L298.95 172.96L299.41 169.78L299.73 166.55L299.93 163.29L300 160L299.93 156.7L299.73 153.44L299.41 150.21L298.95 147.03L298.37 143.88L297.67 140.78L296.85 137.73L295.92 134.72L294.87 131.77L293.71 128.87L292.44 126.03L291.06 123.24L289.59 120.52L288.01 117.87L286.33 115.28L284.55 112.76L282.69 110.32L280.73 107.94L278.99 105.99L220.58 239.98L223.29 239.93Z" id="aByZANxBw"></path></defs><g><g><g><use xlink:href="#aByZANxBw" opacity="1" fill="#000000" fill-opacity="1"></use></g></g></g></svg>
